X:1
T:[ID 4-21r]
T:[ID 4-21r]
T:Bezeichnung standardisiert: Polonaise [mit Trio] Polonoise [mit Trio]
T:Urheber unbekannt Datum in der hier transkribierten schriftlichen Quelle: 1767
C:Urheber unbekannt
C:Datum in der hier transkribierten schriftlichen Quelle: 1767
L:1/8
M:3/4
K:D
V:1 treble 
V:1
 a>b{b} ag/f/{a} gf/e/ | f/g/a/b/{b} ag/f/{a} gf/e/ | .f.f.f.f f/d/f/a/ |{a} gg/f/ f2 e2 :: %4
 e>f{f} ed/c/{e} dc/B/ | c/d/e/f/{f} ed/c/{e} dc/B/ | AA/B/ c/d/e/f/ g/b/a/g/ | f/e/d/c/ c2 d2 :| %8
[M:3/4]"^Trio" !fermata!a>b{b} ad{f} ed/c/ | dd/c/ defg | a>b{b} ad{f} ed/c/ | dd/c/ c2 d2 | %12
 A/B/c/d/ e/d/e/f/ g2 | f/e/f/g/ a2 A2 | A>d{d} B/A/ e>g | f/g/a/c/ c2 d2!D.C.! :| %16

